static/img/kroki/2ea2a8f700385415080340d3a9a2f69e.svg

<?xml version="1.0" encoding="us-ascii" standalone="no"?><svg xmlns="http://www.w3.org/2000/svg" xmlns:xlink="http://www.w3.org/1999/xlink" contentStyleType="text/css" height="573px" preserveAspectRatio="none" style="width:477px;height:573px;" version="1.1" viewBox="0 0 477 573" width="477px" zoomAndPan="magnify"><defs/><g><!--class ai_job--><g id="elem_ai_job"><rect codeLine="23" fill="#3D176E" height="39.7891" id="ai_job" rx="2.5" ry="2.5" style="stroke:#000D19;stroke-width:0.5;" width="91" x="137" y="367.37"/><ellipse cx="152" cy="387.2645" fill="#ADD1B2" rx="11" ry="11" style="stroke:#181818;stroke-width:1.0;"/><path d="M154.9688,392.9052 Q154.3906,393.202 153.75,393.3427 Q153.1094,393.4989 152.4063,393.4989 Q149.9063,393.4989 148.5781,391.8583 Q147.2656,390.202 147.2656,387.077 Q147.2656,383.952 148.5781,382.2958 Q149.9063,380.6395 152.4063,380.6395 Q153.1094,380.6395 153.75,380.7958 Q154.4063,380.952 154.9688,381.2489 L154.9688,383.9677 Q154.3438,383.3895 153.75,383.1239 Q153.1563,382.8427 152.5313,382.8427 Q151.1875,382.8427 150.5,383.9208 Q149.8125,384.9833 149.8125,387.077 Q149.8125,389.1708 150.5,390.2489 Q151.1875,391.3114 152.5313,391.3114 Q153.1563,391.3114 153.75,391.0458 Q154.3438,390.7645 154.9688,390.1864 L154.9688,392.9052 Z " fill="#000000"/><text fill="#D9B8FF" font-family="Helvetica" font-size="17" lengthAdjust="spacing" textLength="49" x="171" y="393.1498">ai_job</text></g><!--class ai_resource--><g id="elem_ai_resource"><rect codeLine="26" fill="#3D176E" height="39.7891" id="ai_resource" rx="2.5" ry="2.5" style="stroke:#000D19;stroke-width:0.5;" width="137" x="103" y="167.79"/><ellipse cx="118" cy="187.6845" fill="#ADD1B2" rx="11" ry="11" style="stroke:#181818;stroke-width:1.0;"/><path d="M120.9688,193.3252 Q120.3906,193.622 119.75,193.7627 Q119.1094,193.9189 118.4063,193.9189 Q115.9063,193.9189 114.5781,192.2783 Q113.2656,190.622 113.2656,187.497 Q113.2656,184.372 114.5781,182.7158 Q115.9063,181.0595 118.4063,181.0595 Q119.1094,181.0595 119.75,181.2158 Q120.4063,181.372 120.9688,181.6689 L120.9688,184.3877 Q120.3438,183.8095 119.75,183.5439 Q119.1563,183.2627 118.5313,183.2627 Q117.1875,183.2627 116.5,184.3408 Q115.8125,185.4033 115.8125,187.497 Q115.8125,189.5908 116.5,190.6689 Q117.1875,191.7314 118.5313,191.7314 Q119.1563,191.7314 119.75,191.4658 Q120.3438,191.1845 120.9688,190.6064 L120.9688,193.3252 Z " fill="#000000"/><text fill="#D9B8FF" font-family="Helvetica" font-size="17" lengthAdjust="spacing" textLength="95" x="137" y="193.5698">ai_resource</text></g><!--class gcp_resource--><g id="elem_gcp_resource"><rect codeLine="29" fill="#3D176E" height="39.7891" id="gcp_resource" rx="2.5" ry="2.5" style="stroke:#000D19;stroke-width:0.5;" width="150" x="221.5" y="267.58"/><ellipse cx="236.5" cy="287.4745" fill="#ADD1B2" rx="11" ry="11" style="stroke:#181818;stroke-width:1.0;"/><path d="M239.4688,293.1152 Q238.8906,293.412 238.25,293.5527 Q237.6094,293.7089 236.9063,293.7089 Q234.4063,293.7089 233.0781,292.0683 Q231.7656,290.412 231.7656,287.287 Q231.7656,284.162 233.0781,282.5058 Q234.4063,280.8495 236.9063,280.8495 Q237.6094,280.8495 238.25,281.0058 Q238.9063,281.162 239.4688,281.4589 L239.4688,284.1777 Q238.8438,283.5995 238.25,283.3339 Q237.6563,283.0527 237.0313,283.0527 Q235.6875,283.0527 235,284.1308 Q234.3125,285.1933 234.3125,287.287 Q234.3125,289.3808 235,290.4589 Q235.6875,291.5214 237.0313,291.5214 Q237.6563,291.5214 238.25,291.2558 Q238.8438,290.9745 239.4688,290.3964 L239.4688,293.1152 Z " fill="#000000"/><text fill="#D9B8FF" font-family="Helvetica" font-size="17" lengthAdjust="spacing" textLength="108" x="255.5" y="293.3598">gcp_resource</text></g><!--class gcp_vertex_ai_model_deployment_monitoring_job--><g id="elem_gcp_vertex_ai_model_deployment_monitoring_job"><rect codeLine="32" fill="#3D176E" height="39.7891" id="gcp_vertex_ai_model_deployment_monitoring_job" rx="2.5" ry="2.5" style="stroke:#000D19;stroke-width:0.5;" width="463" x="7" y="528.16"/><ellipse cx="22" cy="548.0545" fill="#ADD1B2" rx="11" ry="11" style="stroke:#181818;stroke-width:1.0;"/><path d="M24.9688,553.6952 Q24.3906,553.992 23.75,554.1327 Q23.1094,554.2889 22.4063,554.2889 Q19.9063,554.2889 18.5781,552.6483 Q17.2656,550.992 17.2656,547.867 Q17.2656,544.742 18.5781,543.0858 Q19.9063,541.4295 22.4063,541.4295 Q23.1094,541.4295 23.75,541.5858 Q24.4063,541.742 24.9688,542.0389 L24.9688,544.7577 Q24.3438,544.1795 23.75,543.9139 Q23.1563,543.6327 22.5313,543.6327 Q21.1875,543.6327 20.5,544.7108 Q19.8125,545.7733 19.8125,547.867 Q19.8125,549.9608 20.5,551.0389 Q21.1875,552.1014 22.5313,552.1014 Q23.1563,552.1014 23.75,551.8358 Q24.3438,551.5545 24.9688,550.9764 L24.9688,553.6952 Z " fill="#000000"/><text fill="#D9B8FF" font-family="Helvetica" font-size="17" lengthAdjust="spacing" textLength="421" x="41" y="553.9398">gcp_vertex_ai_model_deployment_monitoring_job</text></g><!--class resource--><g id="elem_resource"><rect codeLine="35" fill="#3D176E" height="39.7891" id="resource" rx="2.5" ry="2.5" style="stroke:#000D19;stroke-width:0.5;" width="113" x="177" y="7"/><ellipse cx="192" cy="26.8945" fill="#ADD1B2" rx="11" ry="11" style="stroke:#181818;stroke-width:1.0;"/><path d="M194.9688,32.5352 Q194.3906,32.832 193.75,32.9727 Q193.1094,33.1289 192.4063,33.1289 Q189.9063,33.1289 188.5781,31.4883 Q187.2656,29.832 187.2656,26.707 Q187.2656,23.582 188.5781,21.9258 Q189.9063,20.2695 192.4063,20.2695 Q193.1094,20.2695 193.75,20.4258 Q194.4063,20.582 194.9688,20.8789 L194.9688,23.5977 Q194.3438,23.0195 193.75,22.7539 Q193.1563,22.4727 192.5313,22.4727 Q191.1875,22.4727 190.5,23.5508 Q189.8125,24.6133 189.8125,26.707 Q189.8125,28.8008 190.5,29.8789 Q191.1875,30.9414 192.5313,30.9414 Q193.1563,30.9414 193.75,30.6758 Q194.3438,30.3945 194.9688,29.8164 L194.9688,32.5352 Z " fill="#000000"/><text fill="#D9B8FF" font-family="Helvetica" font-size="17" lengthAdjust="spacing" textLength="71" x="211" y="32.7798">resource</text></g><!--reverse link ai_resource to ai_job--><g id="link_ai_resource_ai_job"><path codeLine="38" d="M173.574,225.962 C175.684,263.732 179.31,329.05 181.42,366.88 " fill="none" id="ai_resource-backto-ai_job" style="stroke:#FFAF37;stroke-width:2.0;"/><polygon fill="none" points="172.57,207.99,167.5833,226.2966,179.5647,225.6273,172.57,207.99" style="stroke:#FFAF37;stroke-width:2.0;"/></g><!--reverse link resource to ai_resource--><g id="link_resource_ai_resource"><path codeLine="39" d="M219.4716,63.8166 C207.5516,94.3366 190.94,136.9 179.01,167.47 " fill="none" id="resource-backto-ai_resource" style="stroke:#FFAF37;stroke-width:2.0;"/><polygon fill="none" points="226.02,47.05,213.8827,61.6338,225.0604,65.9994,226.02,47.05" style="stroke:#FFAF37;stroke-width:2.0;"/></g><!--reverse link resource to gcp_resource--><g id="link_resource_gcp_resource"><path codeLine="40" d="M242.3895,64.3988 C254.0095,112.1088 280.05,218.98 291.78,267.08 " fill="none" id="resource-backto-gcp_resource" style="stroke:#FFAF37;stroke-width:2.0;"/><polygon fill="none" points="238.13,46.91,236.5599,65.8186,248.2191,62.9789,238.13,46.91" style="stroke:#FFAF37;stroke-width:2.0;"/></g><!--reverse link ai_job to gcp_vertex_ai_model_deployment_monitoring_job--><g id="link_ai_job_gcp_vertex_ai_model_deployment_monitoring_job"><path codeLine="41" d="M195.2399,424.3941 C206.0099,454.9141 220.94,497.27 231.72,527.83 " fill="none" id="ai_job-backto-gcp_vertex_ai_model_deployment_monitoring_job" style="stroke:#FFAF37;stroke-width:2.0;"/><polygon fill="none" points="189.25,407.42,189.5818,426.3908,200.8979,422.3975,189.25,407.42" style="stroke:#FFAF37;stroke-width:2.0;"/></g><!--reverse link gcp_resource to gcp_vertex_ai_model_deployment_monitoring_job--><g id="link_gcp_resource_gcp_vertex_ai_model_deployment_monitoring_job"><path codeLine="42" d="M288.3002,325.0535 C277.6002,372.7535 253.64,479.56 242.85,527.66 " fill="none" id="gcp_resource-backto-gcp_vertex_ai_model_deployment_monitoring_job" style="stroke:#FFAF37;stroke-width:2.0;"/><polygon fill="none" points="292.24,307.49,282.4457,323.7403,294.1547,326.3668,292.24,307.49" style="stroke:#FFAF37;stroke-width:2.0;"/></g><!--SRC=[dP9FJm8n4CNl_HHDF9E0H8742v8OlH0ZtabtEuNAjhEP3Y3- -Uuk0bAw0iRhUx-TzrwpKwj1WYjv9Hsu32Y8CBE-LAISx1FXSe05ahmmHfbs9pNlqFDPOAWSo7ie5i0sLodnFBNvp4C8yZAoRbK-cn3ElTwSPr8-L1PuZgX1eKBeCvFDvWnH6TtBkiQaP7hqegrRdMkeOKWQQ8iqcqtTwgN8sQYJkt-8aNq3sOeVROWCjPgrY6_gPCir4PMi3TtvHpi-AgsjdyYhI7lQT28FTA2FfahZSaqRLOGu9Z0G8AzA6DHMGQ-hJUTN-E4OBFBrqqbbno-OoNSXFlSAGS0vvH3BaxmygY-065x7rPSEDHHZ3MM1ArVzOPNWBIDLYzASmsDnwir7ez7ODXDrTQUaLjnGR7VjdJzt50TB_tFW2m00]--></g></svg>

<svg xmlns="http://www.w3.org/2000/svg" width="477" height="573" viewBox="0 0 477 573"><rect width="91" height="39.789" x="137" y="367.37" fill="#3D176E" rx="2.5" ry="2.5" style="stroke:#000d19;stroke-width:.5"/><circle cx="152" cy="387.264" r="11" fill="#ADD1B2" style="stroke:#181818;stroke-width:1"/><path d="M154.969 392.905q-.578.297-1.219.438-.64.156-1.344.156-2.5 0-3.828-1.64-1.312-1.657-1.312-4.782t1.312-4.781q1.328-1.656 3.828-1.656.703 0 1.344.156.656.156 1.219.453v2.719q-.625-.579-1.219-.844-.594-.281-1.219-.281-1.344 0-2.031 1.078-.687 1.062-.687 3.156t.687 3.172q.688 1.062 2.031 1.062.625 0 1.219-.265.594-.281 1.219-.86z"/><text x="171" y="393.15" fill="#D9B8FF" font-family="Helvetica" font-size="17" textLength="49">ai_job</text><rect width="137" height="39.789" x="103" y="167.79" fill="#3D176E" rx="2.5" ry="2.5" style="stroke:#000d19;stroke-width:.5"/><circle cx="118" cy="187.685" r="11" fill="#ADD1B2" style="stroke:#181818;stroke-width:1"/><path d="M120.969 193.325q-.578.297-1.219.438-.64.156-1.344.156-2.5 0-3.828-1.64-1.312-1.657-1.312-4.782t1.312-4.781q1.328-1.656 3.828-1.656.703 0 1.344.156.656.156 1.219.453v2.719q-.625-.578-1.219-.844-.594-.281-1.219-.281-1.344 0-2.031 1.078-.687 1.062-.687 3.156t.687 3.172q.688 1.062 2.031 1.062.625 0 1.219-.265.594-.281 1.219-.86z"/><text x="137" y="193.57" fill="#D9B8FF" font-family="Helvetica" font-size="17" textLength="95">ai_resource</text><rect width="150" height="39.789" x="221.5" y="267.58" fill="#3D176E" rx="2.5" ry="2.5" style="stroke:#000d19;stroke-width:.5"/><circle cx="236.5" cy="287.474" r="11" fill="#ADD1B2" style="stroke:#181818;stroke-width:1"/><path d="M239.469 293.115q-.578.297-1.219.438-.64.156-1.344.156-2.5 0-3.828-1.64-1.312-1.657-1.312-4.782t1.312-4.781q1.328-1.656 3.828-1.656.703 0 1.344.156.656.156 1.219.453v2.719q-.625-.579-1.219-.844-.594-.281-1.219-.281-1.344 0-2.031 1.078-.687 1.062-.687 3.156t.687 3.172q.688 1.062 2.031 1.062.625 0 1.219-.265.594-.281 1.219-.86z"/><text x="255.5" y="293.36" fill="#D9B8FF" font-family="Helvetica" font-size="17" textLength="108">gcp_resource</text><rect width="463" height="39.789" x="7" y="528.16" fill="#3D176E" rx="2.5" ry="2.5" style="stroke:#000d19;stroke-width:.5"/><circle cx="22" cy="548.054" r="11" fill="#ADD1B2" style="stroke:#181818;stroke-width:1"/><path d="M24.969 553.695q-.578.297-1.219.438-.64.156-1.344.156-2.5 0-3.828-1.64-1.312-1.657-1.312-4.782t1.312-4.781q1.328-1.657 3.828-1.657.703 0 1.344.157.656.156 1.219.453v2.719q-.625-.579-1.219-.844-.594-.281-1.219-.281-1.343 0-2.031 1.078-.687 1.062-.687 3.156t.687 3.172q.688 1.062 2.031 1.062.625 0 1.219-.265.594-.282 1.219-.86z"/><text x="41" y="553.94" fill="#D9B8FF" font-family="Helvetica" font-size="17" textLength="421">gcp_vertex_ai_model_deployment_monitoring_job</text><rect width="113" height="39.789" x="177" y="7" fill="#3D176E" rx="2.5" ry="2.5" style="stroke:#000d19;stroke-width:.5"/><circle cx="192" cy="26.895" r="11" fill="#ADD1B2" style="stroke:#181818;stroke-width:1"/><path d="M194.969 32.535q-.578.297-1.219.438-.64.156-1.344.156-2.5 0-3.828-1.64-1.312-1.657-1.312-4.782t1.312-4.781q1.328-1.656 3.828-1.656.703 0 1.344.156.656.156 1.219.453v2.719q-.625-.578-1.219-.844-.594-.281-1.219-.281-1.344 0-2.031 1.078-.687 1.062-.687 3.156t.687 3.172q.688 1.062 2.031 1.062.625 0 1.219-.265.594-.281 1.219-.86z"/><text x="211" y="32.78" fill="#D9B8FF" font-family="Helvetica" font-size="17" textLength="71">resource</text><g fill="none"><path d="M173.574 225.962c2.11 37.77 5.736 103.088 7.846 140.918" style="stroke:#ffaf37;stroke-width:2"/><path d="m172.57 207.99-4.987 18.307 11.982-.67z" style="stroke:#ffaf37;stroke-width:2"/></g><path fill="none" d="M219.472 63.817c-11.92 30.52-28.532 73.083-40.462 103.653m47.01-120.42-12.137 14.584 11.177 4.365zm16.37 17.349c11.62 47.71 37.66 154.581 49.39 202.681M238.13 46.91l-1.57 18.909 11.66-2.84zm-42.89 377.484c10.77 30.52 25.7 72.876 36.48 103.436m-42.47-120.41.332 18.97 11.316-3.993zm99.05-82.366L242.85 527.66m49.39-220.17-9.794 16.25 11.709 2.627z" style="stroke:#ffaf37;stroke-width:2"/></svg>
